X:1
T:Mant, 87.87 D
T:Mant, 87.87 D
T:Irvin James Morgan, 1895
T:Public Domain Courtesy of the Cyber Hymnal™
C:Irvin James Morgan, 1895
Z:Public Domain
Z:Courtesy of the Cyber Hymnal™
%%score ( 1 2 ) ( 3 4 )
L:1/8
Q:1/4=110
M:4/4
K:G
V:1 treble 
V:2 treble 
V:3 bass 
V:4 bass 
V:1
 [B,D]2 [DG]2 [CE]2 D2 | [B,G]2 [DA]2 ([DB][Ec]) [=Fd]2 | E2 [Dc]2 [DB]2 (AG) | [DF]2 [EG]2 A4 | %4
 [B,D]2 [DG]2 [CE]2 D2 | [B,G]2 [DA]2 ([DB][Ec]) [=Fd]2 | [FA]2 [Dd]2 [DE]2 (FG) | F2 [=CE]2 D4 | %8
 F2 [^A,F]2 B2 [DF]2 | A2 [^CA]2 d2 [FA]2 | B2 [^DB]2 e2 [GB]2 | d2 [G^c]2 [Fd]4 | %12
 D2 [DG]2 [CE]2 D2 | [B,G]2 [DA]2 ([DB][Ec]) [=Fd]2 | [Fd]2 [FA]2 [Gd]2 G2 | (Bc) [FA]2 [DG]4 |] %16
V:2
 x6 (A,C) | x8 | E2 x2 E2 x2 | x4 D2 C2 | x6 (A,C) | x8 | x6 D2 | (^CB,) x D4 x | F2 (B,^C) x4 | %9
 A2 (DE) x4 | B2 (EF) x4 | (GF) x6 | D2 x2 (A,C) x2 | x8 | x6 G2 | G2 x6 |] %16
V:3
 [G,,G,]2 [B,,G,]2 (G,E,) [D,F,]2 | [E,G,]2 [F,C]2 [G,B,]2 [^G,B,]2 | [A,C]2 [F,A,]2 G,2 (CB,) | %3
 [D,A,]2 [D,G,]2 [D,F,]4 | G,2 [B,,G,]2 (G,F,) [D,F,]2 | [E,G,]2 [F,C]2 [G,B,]2 [^G,B,]2 | %6
 [A,D]2 [F,A,]2 [G,B,]2 [E,B,]2 | [A,,A,]2 [A,,G,]2 [D,F,]4 | F,2 [E,F,]2 F,2 [A,,F,]2 | %9
 A,2 [G,A,]2 A,2 [D,A,]2 | B,2 [A,B,]2 B,2 [E,E]2 | [A,E]2 [A,,E]2 [D,D]4 | %12
 D,2 [B,,G,]2 (G,E,) [D,F,]2 | [E,G,]2 [F,C]2 [G,B,]2 [^G,B,]2 | [A,C]2 [CD]2 [B,D]2 [E,C]2 | %15
 (DE) [D,C]2 [G,,G,B,]4 |] %16
V:4
 x4 C,2 x2 | x8 | x4 G,2 C,2 | x8 | G,2 C,2 x4 | x8 | x8 | x8 | F,2 (D,^C,) x4 | A,2 (F,E,) x4 | %10
 B,2 (G,F,) x4 | x8 | D,2 C,2 x4 | x8 | x8 | D,2 x6 |] %16

